X:1
T:Boarisch-Schottisch
C:nach Sammlung L.Khals
A:Aussee, Salzkammergut
R:Schottisch
%%textfont Helvetica-Narrow 10pt
%%begintext align
B:"Pfeiermusik aus dem Salzkammergut", zus. A.Ruttner durch V.Derschmidt revidierte Ausgabe, Verlag E. Friedhuber, Wels, 2000
%%endtext 
F:http://simonwascher.info
Z:abc transcription Simon Wascher
M:2/4
L:1/16
K:G
.g2.d2B4 | .d2.c2A4 | .d2.d2.e2.f2 | (bf)(ge)d4 |
.g2.d2B4 | .d2.c2A4 | .d2(d2e2f2) |1 g2 z2g2z2 :|\
                                  [2 g4 z2G2 ||
|:\
B3AB2c2 | d6d2 | c3Bc2d2 | (B2g2)d2 G2 |
B3AB2c2 | d6d2 | c3Bc2d2 |1 B4 z2d2 :|\
                                     [2 B4 z2d2 ||
|:\
B6d2 | g6B2 | (d2B2)(e2B2) | d2(cB)A2 c2 |
A6d2 | f6e2 |1 (d2c2)(B2A2) | (Te2d2)(Te2d2) :|
            [2 d2(d2e2f2) | g4 z4 |]
%%wordsfont Times-Italic 11pt
W:aus Simon Waschers TradArchiv
